X: 1
T: His Master's Inspiration
M: 4/4
L: 1/8
R: hornpipe
K: Dmix
A|:FGAB =cBAF|DCDE FAdc|Beed efge|fgab agfe|
d=cAB cBAF|DCDE FAdc|BGGB AFFA| (3efe  (3dcB AGAz:|
|:DEFG FDFA|dcdA dfed|AB=cA cBAG|EAAB AGFE|
DEFG FDFA|dcdf afed|cBAG FEDC|DdcB AGFE:|
